X:1
T:Where Shall I Be?
T:Where Shall I Be?
T:Charles Price Jones
T:Charles Price Jones, 1899
T:Public Domain Courtesy of the Cyber Hymnal™
T:Public Domain Courtesy of the Cyber Hymnal™
C:Charles Price Jones
Z:Public Domain
Z:Courtesy of the Cyber Hymnal™
%%score ( 1 2 ) 3
L:1/8
Q:1/4=85
M:4/4
K:G
V:1 treble 
V:2 treble 
V:3 bass 
V:1
 D2 | GGBB GG B2 | [EG]2 [CE]<[CE] D2 D2 | GGBB GG B2 | [GB]2 [FA]<[FA] [DG]2 D2 | GGBB GG B2 | %6
w: 1.~When|judg- ment day is draw- ing nigh,|Where shall I be? When|God the works of men shall try,|Where shall I be? When|east and west the fire shall roll,|
w: 2.~When|wick- ed men His wrath shall see,|Where shall I be? And|to the rocks and mount- ains flee,|Where shall I be? When|hills and mount- ains flee a- way,|
w: 3.~When|Heav’n and earth as some great scroll,|Where shall I be? Shall|from God’s an- gry pre- sence roll,|Where shall I be? When|all the saints re- deemed shall stand,|
 [EG]2 [CE]<[CE] D2 D2 | GGBB GG B2 | [GB]2 [FA]<[FA] [DG]2 ||"^Refrain" B2 | %10
w: Where shall I be? How|will it be with my poor soul:|Where shall I be?||
w: Where shall I be? When|all the works of man de- cay,|Where shall I be?|O|
w: Where shall I be? For-|ev- er blest at God’s right hand,|Where shall I be?||
 D2 [DG]<[DG] [GB]2 [DG]>[DB] | [EA] [EG]2 [CE] D2 G2 | D2 [DG]<[DG] [GB]2 [DG]<[DG] | %13
w: |||
w: where shall I be when the|first trump- et sounds, O|where shall I be when it|
w: |||
 [FA]2 [GB]2 [FA]2 [DG]<[DG] | [Gd]2 [Gd]2 [GB]2 [DG]>[DG] | [EA] [EG]2 [CE] D2 G2 | %16
w: |||
w: sounds so loud? When it|sounds so loud as to|wake up the dead? O|
w: |||
 D2 [DG]<[DG] [GB]2 [FA]<[FA] | [DG]6 |] %18
w: ||
w: where shall I be when it|sounds?|
w: ||
V:2
 x2 | x8 | x4 D2 x2 | x8 | x8 | x8 | x4 D2 x2 | x8 | x6 || x2 | D2 x6 | x4 D2 x2 | D2 x6 | x8 | %14
 x8 | x4 D2 x2 | D2 x6 | x6 |] %18
V:3
 z2 | z8 | [C,C]2 [C,G,]<[C,G,] [G,,G,B,]2 z2 | z8 | [D,D]2 [D,C]<[D,C] [G,,G,B,]2 z2 | z8 | %6
 [C,C]2 [C,G,]<[C,G,] [G,,G,B,]2 z2 | z8 | [D,D]2 [D,C]<[D,C] [G,,G,B,]2 || z2 | %10
 [G,B,]2 [G,B,]<[G,B,] [G,D]2 [G,B,]>[G,B,] | [C,C] [C,C]2 [C,G,] [G,B,]2 z2 | %12
 [G,B,]2 [G,B,]<[G,B,] [G,D]2 [G,B,]<[G,B,] | [D,D]2 [D,D]2 [D,D]2 [G,B,]<[G,B,] | %14
 [G,B,]2 [G,B,]2 [G,D]2 [G,B,]>[G,B,] | [C,C] [C,C]2 [C,G,] [G,B,]2 z2 | %16
 [D,B,]2 [D,B,]<[D,B,] [D,D]2 [D,C]<[D,C] | [G,,G,B,]6 |] %18

